pkgs/tbo/tags/tbo-0.98~git20100623+2295523-0ubuntu1guada1/data/doodle/accesories/devices/network-wireless.svg

<?xml version="1.0" encoding="UTF-8" standalone="no"?>
<!-- Created with Inkscape (http://www.inkscape.org/) -->

<svg
   xmlns:svg="http://www.w3.org/2000/svg"
   xmlns="http://www.w3.org/2000/svg"
   xmlns:xlink="http://www.w3.org/1999/xlink"
   version="1.1"
   width="48"
   height="48"
   id="svg11300">
  <defs
     id="defs3">
    <radialGradient
       cx="605.71429"
       cy="486.64789"
       r="117.14286"
       fx="605.71429"
       fy="486.64789"
       id="radialGradient6719"
       xlink:href="#linearGradient5060"
       gradientUnits="userSpaceOnUse"
       gradientTransform="matrix(-2.774389,0,0,1.969706,112.7623,-872.8854)" />
    <linearGradient
       id="linearGradient5060">
      <stop
         id="stop5062"
         style="stop-color:#000000;stop-opacity:1"
         offset="0" />
      <stop
         id="stop5064"
         style="stop-color:#000000;stop-opacity:0"
         offset="1" />
    </linearGradient>
    <radialGradient
       cx="605.71429"
       cy="486.64789"
       r="117.14286"
       fx="605.71429"
       fy="486.64789"
       id="radialGradient6717"
       xlink:href="#linearGradient5060"
       gradientUnits="userSpaceOnUse"
       gradientTransform="matrix(2.774389,0,0,1.969706,-1891.633,-872.8854)" />
    <linearGradient
       id="linearGradient5048">
      <stop
         id="stop5050"
         style="stop-color:#000000;stop-opacity:0"
         offset="0" />
      <stop
         id="stop5056"
         style="stop-color:#000000;stop-opacity:1"
         offset="0.5" />
      <stop
         id="stop5052"
         style="stop-color:#000000;stop-opacity:0"
         offset="1" />
    </linearGradient>
    <linearGradient
       x1="302.85715"
       y1="366.64789"
       x2="302.85715"
       y2="609.50507"
       id="linearGradient6715"
       xlink:href="#linearGradient5048"
       gradientUnits="userSpaceOnUse"
       gradientTransform="matrix(2.774389,0,0,1.969706,-1892.179,-872.8854)" />
    <linearGradient
       id="linearGradient11520">
      <stop
         id="stop11522"
         style="stop-color:#ffffff;stop-opacity:1"
         offset="0" />
      <stop
         id="stop11524"
         style="stop-color:#dcdcdc;stop-opacity:1"
         offset="1" />
    </linearGradient>
    <linearGradient
       id="linearGradient11508">
      <stop
         id="stop11510"
         style="stop-color:#000000;stop-opacity:1"
         offset="0" />
      <stop
         id="stop11512"
         style="stop-color:#000000;stop-opacity:0"
         offset="1" />
    </linearGradient>
    <linearGradient
       id="linearGradient11494">
      <stop
         id="stop11496"
         style="stop-color:#ef2929;stop-opacity:1"
         offset="0" />
      <stop
         id="stop11498"
         style="stop-color:#ef2929;stop-opacity:0"
         offset="1" />
    </linearGradient>
    <radialGradient
       cx="30.203562"
       cy="44.565483"
       r="6.5659914"
       fx="30.203562"
       fy="44.565483"
       id="radialGradient1348"
       xlink:href="#linearGradient11508"
       gradientUnits="userSpaceOnUse"
       gradientTransform="matrix(1,0,0,0.338462,0,29.48178)" />
    <radialGradient
       cx="27.577173"
       cy="16.049133"
       r="3.8335035"
       fx="27.577173"
       fy="16.049133"
       id="radialGradient1352"
       xlink:href="#linearGradient11494"
       gradientUnits="userSpaceOnUse"
       gradientTransform="matrix(1.243453,0,0,1.243453,-6.713754,-3.742847)" />
    <radialGradient
       cx="27.577173"
       cy="15.048258"
       r="3.8335035"
       fx="27.577173"
       fy="15.048258"
       id="radialGradient1354"
       xlink:href="#linearGradient11494"
       gradientUnits="userSpaceOnUse"
       gradientTransform="matrix(1.243453,0,0,1.243453,-6.713754,-3.742847)" />
    <radialGradient
       cx="30.203562"
       cy="44.565483"
       r="6.5659914"
       fx="30.203562"
       fy="44.565483"
       id="radialGradient1356"
       xlink:href="#linearGradient11508"
       gradientUnits="userSpaceOnUse"
       gradientTransform="matrix(1,0,0,0.338462,0,29.48178)" />
    <radialGradient
       cx="24.44569"
       cy="35.87817"
       r="20.530962"
       fx="24.44569"
       fy="35.87817"
       id="radialGradient1366"
       xlink:href="#linearGradient11520"
       gradientUnits="userSpaceOnUse"
       gradientTransform="matrix(1.995058,0,0,1.995058,-24.32488,-35.70087)" />
  </defs>
  <g
     id="layer1">
    <g
       transform="matrix(0.02243425,0,0,0.02086758,44.31095,40.86789)"
       id="g6707">
      <rect
         width="1339.6335"
         height="478.35718"
         x="-1559.2523"
         y="-150.69685"
         id="rect6709"
         style="opacity:0.40206185;color:#000000;fill:url(#linearGradient6715);fill-opacity:1;fill-rule:nonzero;stroke:none;stroke-width:1;marker:none;visibility:visible;display:inline;overflow:visible" />
      <path
         d="m -219.61876,-150.68038 c 0,0 0,478.33079 0,478.33079 142.874166,0.90045 345.40022,-107.16966 345.40014,-239.196175 0,-132.026537 -159.436816,-239.134595 -345.40014,-239.134615 z"
         id="path6711"
         style="opacity:0.40206185;color:#000000;fill:url(#radialGradient6717);fill-opacity:1;fill-rule:nonzero;stroke:none;stroke-width:1;marker:none;visibility:visible;display:inline;overflow:visible" />
      <path
         d="m -1559.2523,-150.68038 c 0,0 0,478.33079 0,478.33079 -142.8742,0.90045 -345.4002,-107.16966 -345.4002,-239.196175 0,-132.026537 159.4368,-239.134595 345.4002,-239.134615 z"
         id="path6713"
         style="opacity:0.40206185;color:#000000;fill:url(#radialGradient6719);fill-opacity:1;fill-rule:nonzero;stroke:none;stroke-width:1;marker:none;visibility:visible;display:inline;overflow:visible" />
    </g>
    <rect
       width="40.061924"
       height="40.061924"
       rx="5.454824"
       ry="5.454824"
       x="4.4147282"
       y="3.5233452"
       id="rect11518"
       style="color:#000000;fill:url(#radialGradient1366);fill-opacity:1;fill-rule:evenodd;stroke:#9b9b9b;stroke-width:1;stroke-linecap:butt;stroke-linejoin:bevel;stroke-miterlimit:10;stroke-opacity:1;stroke-dasharray:none;stroke-dashoffset:0;marker:none;visibility:visible;display:inline;overflow:visible" />
    <path
       d="m 20.224903,38.955668 4.595035,-14.595994 5.315825,14.595994"
       id="path11486"
       style="color:#000000;fill:none;stroke:#000000;stroke-width:1.00000036;stroke-linecap:butt;stroke-linejoin:miter;stroke-miterlimit:10;stroke-opacity:1;stroke-dasharray:none;stroke-dashoffset:0;marker:none;visibility:visible;display:inline;overflow:visible" />
    <path
       d="m 30.910667,18.604561 a 3.3335035,3.3335035 0 1 1 -6.667007,0 3.3335035,3.3335035 0 1 1 6.667007,0 z"
       transform="matrix(0.68922,0,0,0.68922,5.768155,11.069)"
       id="path11482"
       style="color:#000000;fill:#ef2929;fill-opacity:1;fill-rule:evenodd;stroke:none;stroke-width:0.99999982;marker:none;visibility:visible;display:inline;overflow:visible" />
    <path
       d="m 30.910667,18.604561 a 3.3335035,3.3335035 0 1 1 -6.667007,0 3.3335035,3.3335035 0 1 1 6.667007,0 z"
       transform="matrix(2.382303,0,0,2.382303,-40.92229,-20.43007)"
       id="path11488"
       style="color:#000000;fill:none;stroke:url(#radialGradient1352);stroke-width:1.18127644;stroke-linecap:butt;stroke-linejoin:miter;stroke-miterlimit:10;stroke-opacity:1;stroke-dasharray:none;stroke-dashoffset:0;marker:none;visibility:visible;display:inline;overflow:visible" />
    <path
       d="m 30.910667,18.604561 a 3.3335035,3.3335035 0 1 1 -6.667007,0 3.3335035,3.3335035 0 1 1 6.667007,0 z"
       transform="matrix(4.657608,0,0,4.657608,-103.669,-62.76113)"
       id="path11490"
       style="color:#000000;fill:none;stroke:url(#radialGradient1354);stroke-width:0.60420674;stroke-linecap:butt;stroke-linejoin:miter;stroke-miterlimit:10;stroke-opacity:1;stroke-dasharray:none;stroke-dashoffset:0;marker:none;visibility:visible;display:inline;overflow:visible" />
    <path
       d="m 36.769553,44.565483 a 6.5659914,2.2223356 0 1 1 -13.131983,0 6.5659914,2.2223356 0 1 1 13.131983,0 z"
       transform="matrix(1.567741,0,0,1.567741,-22.25656,-31.99559)"
       id="path11506"
       style="opacity:0.17647059;color:#000000;fill:url(#radialGradient1356);fill-opacity:1;fill-rule:evenodd;stroke:none;stroke-width:2.81415844;marker:none;visibility:visible;display:inline;overflow:visible" />
    <path
       d="m 23.812108,28.571856 2.907465,0.855136 -4.275683,2.907465 5.814928,1.539245 -7.183147,2.907465 8.551366,0.855137"
       id="path11516"
       style="color:#000000;fill:none;stroke:#000000;stroke-width:1.00000036;stroke-linecap:butt;stroke-linejoin:bevel;stroke-miterlimit:10;stroke-opacity:1;stroke-dasharray:none;stroke-dashoffset:0;marker:none;visibility:visible;display:inline;overflow:visible" />
    <rect
       width="37.696587"
       height="37.696587"
       rx="4.2426391"
       ry="4.2426391"
       x="5.5973887"
       y="4.706007"
       id="rect11528"
       style="color:#000000;fill:none;stroke:#ffffff;stroke-width:0.99999976;stroke-linecap:butt;stroke-linejoin:bevel;stroke-miterlimit:10;stroke-opacity:1;stroke-dasharray:none;stroke-dashoffset:0;marker:none;visibility:visible;display:inline;overflow:visible" />
  </g>
</svg>

<?xml version="1.0" encoding="UTF-8" standalone="no"?>
<!-- Created with Inkscape (http://www.inkscape.org/) -->
<svg
   xmlns:dc="http://purl.org/dc/elements/1.1/"
   xmlns:cc="http://creativecommons.org/ns#"
   xmlns:rdf="http://www.w3.org/1999/02/22-rdf-syntax-ns#"
   xmlns:svg="http://www.w3.org/2000/svg"
   xmlns="http://www.w3.org/2000/svg"
   xmlns:xlink="http://www.w3.org/1999/xlink"
   xmlns:sodipodi="http://sodipodi.sourceforge.net/DTD/sodipodi-0.dtd"
   xmlns:inkscape="http://www.inkscape.org/namespaces/inkscape"
   inkscape:export-ydpi="90.000000"
   inkscape:export-xdpi="90.000000"
   inkscape:export-filename="/home/jimmac/Desktop/wi-fi.png"
   width="48px"
   height="48px"
   id="svg11300"
   sodipodi:version="0.32"
   inkscape:version="0.46"
   sodipodi:docbase="/home/jimmac/src/cvs/tango-icon-theme/scalable/devices"
   sodipodi:docname="network-wireless.svg"
   inkscape:output_extension="org.inkscape.output.svg.inkscape">
  <defs
     id="defs3">
    <inkscape:perspective
       sodipodi:type="inkscape:persp3d"
       inkscape:vp_x="0 : 24 : 1"
       inkscape:vp_y="0 : 1000 : 0"
       inkscape:vp_z="48 : 24 : 1"
       inkscape:persp3d-origin="24 : 16 : 1"
       id="perspective43" />
    <radialGradient
       inkscape:collect="always"
       xlink:href="#linearGradient5060"
       id="radialGradient6719"
       gradientUnits="userSpaceOnUse"
       gradientTransform="matrix(-2.774389,0,0,1.969706,112.7623,-872.8854)"
       cx="605.71429"
       cy="486.64789"
       fx="605.71429"
       fy="486.64789"
       r="117.14286" />
    <linearGradient
       inkscape:collect="always"
       id="linearGradient5060">
      <stop
         style="stop-color:black;stop-opacity:1;"
         offset="0"
         id="stop5062" />
      <stop
         style="stop-color:black;stop-opacity:0;"
         offset="1"
         id="stop5064" />
    </linearGradient>
    <radialGradient
       inkscape:collect="always"
       xlink:href="#linearGradient5060"
       id="radialGradient6717"
       gradientUnits="userSpaceOnUse"
       gradientTransform="matrix(2.774389,0,0,1.969706,-1891.633,-872.8854)"
       cx="605.71429"
       cy="486.64789"
       fx="605.71429"
       fy="486.64789"
       r="117.14286" />
    <linearGradient
       id="linearGradient5048">
      <stop
         style="stop-color:black;stop-opacity:0;"
         offset="0"
         id="stop5050" />
      <stop
         id="stop5056"
         offset="0.5"
         style="stop-color:black;stop-opacity:1;" />
      <stop
         style="stop-color:black;stop-opacity:0;"
         offset="1"
         id="stop5052" />
    </linearGradient>
    <linearGradient
       inkscape:collect="always"
       xlink:href="#linearGradient5048"
       id="linearGradient6715"
       gradientUnits="userSpaceOnUse"
       gradientTransform="matrix(2.774389,0,0,1.969706,-1892.179,-872.8854)"
       x1="302.85715"
       y1="366.64789"
       x2="302.85715"
       y2="609.50507" />
    <linearGradient
       id="linearGradient11520">
      <stop
         id="stop11522"
         offset="0.0000000"
         style="stop-color:#ffffff;stop-opacity:1.0000000;" />
      <stop
         id="stop11524"
         offset="1.0000000"
         style="stop-color:#dcdcdc;stop-opacity:1.0000000;" />
    </linearGradient>
    <linearGradient
       id="linearGradient11508"
       inkscape:collect="always">
      <stop
         id="stop11510"
         offset="0"
         style="stop-color:#000000;stop-opacity:1;" />
      <stop
         id="stop11512"
         offset="1"
         style="stop-color:#000000;stop-opacity:0;" />
    </linearGradient>
    <linearGradient
       id="linearGradient11494"
       inkscape:collect="always">
      <stop
         id="stop11496"
         offset="0"
         style="stop-color:#ef2929;stop-opacity:1;" />
      <stop
         id="stop11498"
         offset="1"
         style="stop-color:#ef2929;stop-opacity:0;" />
    </linearGradient>
    <radialGradient
       inkscape:collect="always"
       xlink:href="#linearGradient11508"
       id="radialGradient1348"
       gradientUnits="userSpaceOnUse"
       gradientTransform="matrix(1.000000,0.000000,0.000000,0.338462,-1.435476e-15,29.48178)"
       cx="30.203562"
       cy="44.565483"
       fx="30.203562"
       fy="44.565483"
       r="6.5659914" />
    <radialGradient
       inkscape:collect="always"
       xlink:href="#linearGradient11494"
       id="radialGradient1352"
       gradientUnits="userSpaceOnUse"
       gradientTransform="matrix(1.243453,2.106784e-16,-2.106784e-16,1.243453,-6.713754,-3.742847)"
       cx="27.577173"
       cy="16.049133"
       fx="27.577173"
       fy="16.049133"
       r="3.8335034" />
    <radialGradient
       inkscape:collect="always"
       xlink:href="#linearGradient11494"
       id="radialGradient1354"
       gradientUnits="userSpaceOnUse"
       gradientTransform="matrix(1.243453,2.106784e-16,-2.106784e-16,1.243453,-6.713754,-3.742847)"
       cx="27.577173"
       cy="15.048258"
       fx="27.577173"
       fy="15.048258"
       r="3.8335034" />
    <radialGradient
       inkscape:collect="always"
       xlink:href="#linearGradient11508"
       id="radialGradient1356"
       gradientUnits="userSpaceOnUse"
       gradientTransform="matrix(1.000000,0.000000,0.000000,0.338462,2.220359e-14,29.48178)"
       cx="30.203562"
       cy="44.565483"
       fx="30.203562"
       fy="44.565483"
       r="6.5659914" />
    <radialGradient
       inkscape:collect="always"
       xlink:href="#linearGradient11520"
       id="radialGradient1366"
       gradientUnits="userSpaceOnUse"
       gradientTransform="matrix(1.995058,-1.651527e-32,0.000000,1.995058,-24.32488,-35.70087)"
       cx="24.445690"
       cy="35.878170"
       fx="24.445690"
       fy="35.878170"
       r="20.530962" />
  </defs>
  <sodipodi:namedview
     stroke="#ef2929"
     fill="#eeeeec"
     id="base"
     pagecolor="#ffffff"
     bordercolor="#666666"
     borderopacity="0.25490196"
     inkscape:pageopacity="0.0"
     inkscape:pageshadow="2"
     inkscape:zoom="7"
     inkscape:cx="23.818102"
     inkscape:cy="22.612601"
     inkscape:current-layer="layer1"
     showgrid="false"
     inkscape:grid-bbox="true"
     inkscape:document-units="px"
     inkscape:showpageshadow="false"
     inkscape:window-width="876"
     inkscape:window-height="818"
     inkscape:window-x="198"
     inkscape:window-y="30" />
  <metadata
     id="metadata4">
    <rdf:RDF>
      <cc:Work
         rdf:about="">
        <dc:format>image/svg+xml</dc:format>
        <dc:type
           rdf:resource="http://purl.org/dc/dcmitype/StillImage" />
        <dc:creator>
          <cc:Agent>
            <dc:title>Jakub Steiner</dc:title>
          </cc:Agent>
        </dc:creator>
        <dc:source>http://jimmac.musichall.cz</dc:source>
        <cc:license
           rdf:resource="http://creativecommons.org/licenses/publicdomain/" />
        <dc:title>Wi-Fi network</dc:title>
      </cc:Work>
      <cc:License
         rdf:about="http://creativecommons.org/licenses/publicdomain/">
        <cc:permits
           rdf:resource="http://creativecommons.org/ns#Reproduction" />
        <cc:permits
           rdf:resource="http://creativecommons.org/ns#Distribution" />
        <cc:permits
           rdf:resource="http://creativecommons.org/ns#DerivativeWorks" />
      </cc:License>
    </rdf:RDF>
  </metadata>
  <g
     id="layer1"
     inkscape:label="Layer 1"
     inkscape:groupmode="layer">
    <g
       transform="matrix(2.243425e-2,0,0,2.086758e-2,44.31095,40.86789)"
       id="g6707">
      <rect
         style="opacity:0.40206185;color:black;fill:url(#linearGradient6715);fill-opacity:1;fill-rule:nonzero;stroke:none;stroke-width:1;stroke-linecap:round;stroke-linejoin:miter;marker:none;marker-start:none;marker-mid:none;marker-end:none;stroke-miterlimit:4;stroke-dasharray:none;stroke-dashoffset:0;stroke-opacity:1;visibility:visible;display:inline;overflow:visible"
         id="rect6709"
         width="1339.6335"
         height="478.35718"
         x="-1559.2523"
         y="-150.69685" />
      <path
         style="opacity:0.40206185;color:black;fill:url(#radialGradient6717);fill-opacity:1;fill-rule:nonzero;stroke:none;stroke-width:1;stroke-linecap:round;stroke-linejoin:miter;marker:none;marker-start:none;marker-mid:none;marker-end:none;stroke-miterlimit:4;stroke-dasharray:none;stroke-dashoffset:0;stroke-opacity:1;visibility:visible;display:inline;overflow:visible"
         d="M -219.61876,-150.68038 C -219.61876,-150.68038 -219.61876,327.65041 -219.61876,327.65041 C -76.744594,328.55086 125.78146,220.48075 125.78138,88.454235 C 125.78138,-43.572302 -33.655436,-150.68036 -219.61876,-150.68038 z "
         id="path6711"
         sodipodi:nodetypes="cccc" />
      <path
         sodipodi:nodetypes="cccc"
         id="path6713"
         d="M -1559.2523,-150.68038 C -1559.2523,-150.68038 -1559.2523,327.65041 -1559.2523,327.65041 C -1702.1265,328.55086 -1904.6525,220.48075 -1904.6525,88.454235 C -1904.6525,-43.572302 -1745.2157,-150.68036 -1559.2523,-150.68038 z "
         style="opacity:0.40206185;color:black;fill:url(#radialGradient6719);fill-opacity:1;fill-rule:nonzero;stroke:none;stroke-width:1;stroke-linecap:round;stroke-linejoin:miter;marker:none;marker-start:none;marker-mid:none;marker-end:none;stroke-miterlimit:4;stroke-dasharray:none;stroke-dashoffset:0;stroke-opacity:1;visibility:visible;display:inline;overflow:visible" />
    </g>
    <rect
       ry="5.4548240"
       rx="5.4548240"
       y="3.5233452"
       x="4.4147282"
       height="40.061924"
       width="40.061924"
       id="rect11518"
       style="opacity:1.0000000;color:#000000;fill:url(#radialGradient1366);fill-opacity:1.0000000;fill-rule:evenodd;stroke:#9b9b9b;stroke-width:1.0000000;stroke-linecap:butt;stroke-linejoin:bevel;marker:none;marker-start:none;marker-mid:none;marker-end:none;stroke-miterlimit:10.000000;stroke-dasharray:none;stroke-dashoffset:0.0000000;stroke-opacity:1.0000000;visibility:visible;display:inline;overflow:visible" />
    <path
       style="opacity:1.0000000;color:#000000;fill:none;fill-opacity:1.0000000;fill-rule:evenodd;stroke:#000000;stroke-width:1.0000004;stroke-linecap:butt;stroke-linejoin:miter;marker:none;marker-start:none;marker-mid:none;marker-end:none;stroke-miterlimit:10.000000;stroke-dasharray:none;stroke-dashoffset:0.0000000;stroke-opacity:1.0000000;visibility:visible;display:inline;overflow:visible"
       d="M 20.224903,38.955668 L 24.819938,24.359674 L 30.135763,38.955668"
       id="path11486"
       sodipodi:nodetypes="ccc" />
    <path
       transform="matrix(0.689220,0.000000,0.000000,0.689220,5.768155,11.06900)"
       d="M 30.910667 18.604561 A 3.3335035 3.3335035 0 1 1  24.243660,18.604561 A 3.3335035 3.3335035 0 1 1  30.910667 18.604561 z"
       sodipodi:ry="3.3335035"
       sodipodi:rx="3.3335035"
       sodipodi:cy="18.604561"
       sodipodi:cx="27.577164"
       id="path11482"
       style="opacity:1.0000000;color:#000000;fill:#ef2929;fill-opacity:1.0000000;fill-rule:evenodd;stroke:none;stroke-width:0.99999982;stroke-linecap:butt;stroke-linejoin:miter;marker:none;marker-start:none;marker-mid:none;marker-end:none;stroke-miterlimit:10.000000;stroke-dasharray:none;stroke-dashoffset:0.0000000;stroke-opacity:1.0000000;visibility:visible;display:inline;overflow:visible"
       sodipodi:type="arc" />
    <path
       sodipodi:type="arc"
       style="opacity:1.0000000;color:#000000;fill:none;fill-opacity:1.0000000;fill-rule:evenodd;stroke:url(#radialGradient1352);stroke-width:1.1812764;stroke-linecap:butt;stroke-linejoin:miter;marker:none;marker-start:none;marker-mid:none;marker-end:none;stroke-miterlimit:10.000000;stroke-dasharray:none;stroke-dashoffset:0.0000000;stroke-opacity:1.0000000;visibility:visible;display:inline;overflow:visible"
       id="path11488"
       sodipodi:cx="27.577164"
       sodipodi:cy="18.604561"
       sodipodi:rx="3.3335035"
       sodipodi:ry="3.3335035"
       d="M 30.910667 18.604561 A 3.3335035 3.3335035 0 1 1  24.243660,18.604561 A 3.3335035 3.3335035 0 1 1  30.910667 18.604561 z"
       transform="matrix(2.382303,0.000000,0.000000,2.382303,-40.92229,-20.43007)" />
    <path
       transform="matrix(4.657608,0.000000,0.000000,4.657608,-103.6690,-62.76113)"
       d="M 30.910667 18.604561 A 3.3335035 3.3335035 0 1 1  24.243660,18.604561 A 3.3335035 3.3335035 0 1 1  30.910667 18.604561 z"
       sodipodi:ry="3.3335035"
       sodipodi:rx="3.3335035"
       sodipodi:cy="18.604561"
       sodipodi:cx="27.577164"
       id="path11490"
       style="opacity:1.0000000;color:#000000;fill:none;fill-opacity:1.0000000;fill-rule:evenodd;stroke:url(#radialGradient1354);stroke-width:0.60420674;stroke-linecap:butt;stroke-linejoin:miter;marker:none;marker-start:none;marker-mid:none;marker-end:none;stroke-miterlimit:10.000000;stroke-dasharray:none;stroke-dashoffset:0.0000000;stroke-opacity:1.0000000;visibility:visible;display:inline;overflow:visible"
       sodipodi:type="arc" />
    <path
       transform="matrix(1.567741,0.000000,0.000000,1.567741,-22.25656,-31.99559)"
       d="M 36.769553 44.565483 A 6.5659914 2.2223356 0 1 1  23.637570,44.565483 A 6.5659914 2.2223356 0 1 1  36.769553 44.565483 z"
       sodipodi:ry="2.2223356"
       sodipodi:rx="6.5659914"
       sodipodi:cy="44.565483"
       sodipodi:cx="30.203562"
       id="path11506"
       style="opacity:0.17647059;color:#000000;fill:url(#radialGradient1356);fill-opacity:1.0000000;fill-rule:evenodd;stroke:none;stroke-width:2.8141584;stroke-linecap:butt;stroke-linejoin:miter;marker:none;marker-start:none;marker-mid:none;marker-end:none;stroke-miterlimit:10.000000;stroke-dasharray:none;stroke-dashoffset:0.0000000;stroke-opacity:1.0000000;visibility:visible;display:inline;overflow:visible"
       sodipodi:type="arc" />
    <path
       id="path11516"
       d="M 23.812108,28.571856 L 26.719573,29.426992 L 22.443890,32.334457 L 28.258818,33.873702 L 21.075671,36.781167 L 29.627037,37.636304"
       style="opacity:1.0000000;color:#000000;fill:none;fill-opacity:1.0000000;fill-rule:evenodd;stroke:#000000;stroke-width:1.0000004;stroke-linecap:butt;stroke-linejoin:bevel;marker:none;marker-start:none;marker-mid:none;marker-end:none;stroke-miterlimit:10.000000;stroke-dasharray:none;stroke-dashoffset:0.0000000;stroke-opacity:1.0000000;visibility:visible;display:inline;overflow:visible" />
    <rect
       style="opacity:1.0000000;color:#000000;fill:none;fill-opacity:1.0000000;fill-rule:evenodd;stroke:#ffffff;stroke-width:0.99999976;stroke-linecap:butt;stroke-linejoin:bevel;marker:none;marker-start:none;marker-mid:none;marker-end:none;stroke-miterlimit:10.000000;stroke-dasharray:none;stroke-dashoffset:0.0000000;stroke-opacity:1.0000000;visibility:visible;display:inline;overflow:visible"
       id="rect11528"
       width="37.696587"
       height="37.696587"
       x="5.5973887"
       y="4.7060070"
       rx="4.2426391"
       ry="4.2426391" />
  </g>
</svg>
